svg/u2764_200d_1f525.svg

<svg viewBox="0 0 128 128" xmlns="http://www.w3.org/2000/svg">
  <g>
    <radialGradient id="SVGID_1_" cx="56.143" cy="84.3086" gradientTransform="matrix(1 0 0 1.0168 0 -1.4136)" gradientUnits="userSpaceOnUse" r="87.4645">
      <stop offset="0.3903" stop-color="#FFD600"/>
      <stop offset="0.6895" stop-color="#FF9800"/>
      <stop offset="1" stop-color="#F44336"/>
    </radialGradient>
    <path d="M99.66,51.02C97,35.69,90.52,30.95,84.8,26.77c-3.93-2.87-7.33-5.35-9.04-10.79 c-1.83-5.8,2.8-11.84,2.85-11.9c0.13-0.16,0.14-0.39,0.03-0.57c-0.11-0.18-0.3-0.27-0.52-0.23c-0.39,0.07-0.89,0.14-1.48,0.21 c-6.1,0.81-22.29,2.94-26.55,24.65c-0.56,2.86-2.29,5.18-4.1,5.51c-1.16,0.21-2.25-0.43-3.13-1.86c-3.5-5.68,3.85-15.25,3.93-15.35 c0.13-0.16,0.14-0.39,0.03-0.57c-0.11-0.18-0.32-0.27-0.52-0.23c-0.21,0.04-20.7,4.31-29.02,25.26 c-2.53,6.37-9.62,28.64,5.28,47.76c14.94,19.17,24.01,20.48,24.21,20.59C46.84,109.3,104.82,88.36,99.66,51.02z" fill="url(#SVGID_1_)"/>
    <linearGradient id="SVGID_2_" gradientUnits="userSpaceOnUse" x1="66.376" x2="67.8643" y1="55.1768" y2="7.9211">
      <stop offset="0.1645" stop-color="#FFEB3B"/>
      <stop offset="1" stop-color="#FFD600"/>
    </linearGradient>
    <path d="M70.75,36.89c-3.97-7.72-10.41-23.91,6.55-32.76 C64.55,6.42,55.18,15.49,55.94,30.8c0.49,9.98,6.1,18.88,8.71,28.52c3.51,13.03,0.86,21.17-0.67,27.32 C85.74,72.36,75.84,46.77,70.75,36.89z" fill="url(#SVGID_2_)" opacity="0.8"/>
    <radialGradient id="SVGID_3_" cx="64.5538" cy="119.1121" gradientUnits="userSpaceOnUse" r="100.4351">
      <stop offset="0.1189" stop-color="#FF6D00"/>
      <stop offset="0.4848" stop-color="#F44336"/>
      <stop offset="0.8142" stop-color="#B71C1C"/>
    </radialGradient>
    <path d="M87.31,41.09c-16.65,0-22.76,17.01-22.76,17.01s-4.38-17.01-22.8-17.01 c-12.6,0-26.96,9.98-21.65,32.68c5.31,22.69,44.49,50.97,44.49,50.97s39.05-28.27,44.36-50.96 C114.26,51.07,100.92,41.09,87.31,41.09z" fill="url(#SVGID_3_)"/>
    <path d="M28.85,53.14c2.85-3.56,7.94-6.49,12.25-3.11c2.33,1.83,1.31,5.59-0.77,7.17 c-3.04,2.31-5.69,3.7-7.53,7.32c-1.11,2.18-1.78,4.55-2.12,6.98c-0.13,0.96-1.39,1.19-1.86,0.35 C25.6,66.15,24.69,58.33,28.85,53.14z" fill="#FF7043"/>
    <path d="M74.53,60.61c-1.34,0-2.28-1.29-1.79-2.54c0.91-2.29,2.07-4.52,3.48-6.49 c2.08-2.92,6.04-4.62,8.55-2.85c2.57,1.81,2.24,5.43,0.43,7.17C81.32,59.65,76.45,60.61,74.53,60.61z" fill="#FF7043"/>
    <g>
      <linearGradient id="SVGID_4_" gradientUnits="userSpaceOnUse" x1="44.8472" x2="59.7309" y1="96.121" y2="141.3302">
        <stop offset="0.0759" stop-color="#FFEB3B"/>
        <stop offset="1" stop-color="#FFD600" stop-opacity="0"/>
      </linearGradient>
      <path d="M62.56,123.22c-12.1-1.61-17.8-4.96-21.99-13.7c-2.14-4.47-2.15-12.11-2.23-16.84 c-0.09-5.24-1.67-9.77-1.67-9.77c3.16,0.56,8.89,6.11,11.53,16.37C52.79,117.09,62.56,123.22,62.56,123.22z" fill="url(#SVGID_4_)"/>
    </g>
    <g>
      <linearGradient id="SVGID_5_" gradientUnits="userSpaceOnUse" x1="94.7209" x2="120.6082" y1="46.4721" y2="61.1415">
        <stop offset="0" stop-color="#FFD600"/>
        <stop offset="1" stop-color="#FFD600" stop-opacity="0"/>
      </linearGradient>
      <path d="M104.82,82.91c0,0,9.09-5.25,11.34-17.89c1.47-8.25-0.28-16.49-8.19-24.58 c-2.81-2.88-12-9.89-8.47-21.97c0,0-8.64,7.33-5.71,20.55C97.09,53.91,111.14,59.02,104.82,82.91z" fill="url(#SVGID_5_)"/>
    </g>
    <g>
      <linearGradient id="SVGID_6_" gradientUnits="userSpaceOnUse" x1="87.6526" x2="94.9084" y1="65.354" y2="140.3306">
        <stop offset="0.1873" stop-color="#FFEB3B"/>
        <stop offset="0.9339" stop-color="#FFD600" stop-opacity="0"/>
      </linearGradient>
      <path d="M97.88,66c2.43,0.86,12.27,16.19,3.12,32.29c-8.14,14.32-24.05,16.54-24.05,16.54 s12.56-12.58,17.47-24.52C98.86,79.54,97.88,66,97.88,66z" fill="url(#SVGID_6_)"/>
    </g>
  </g>
</svg>

<svg viewBox="0 0 128 128" xmlns="http://www.w3.org/2000/svg">
  <defs>
    <radialGradient id="SVGID_1_" cx="56.143" cy="82.918356" gradientTransform="matrix(1 0 0 1.0168 0 0)" gradientUnits="userSpaceOnUse" r="87.4645">
      <stop offset="0.3903" stop-color="#FFD600"/>
      <stop offset="0.6895" stop-color="#FF9800"/>
      <stop offset="1" stop-color="#F44336"/>
    </radialGradient>
    <linearGradient id="SVGID_2_" gradientUnits="userSpaceOnUse" x1="66.376" x2="67.8643" y1="55.1768" y2="7.9211">
      <stop offset="0.1645" stop-color="#FFEB3B"/>
      <stop offset="1" stop-color="#FFD600"/>
    </linearGradient>
    <radialGradient id="SVGID_3_" cx="64.5538" cy="119.1121" gradientUnits="userSpaceOnUse" r="100.4351">
      <stop offset="0.1189" stop-color="#FF6D00"/>
      <stop offset="0.4848" stop-color="#F44336"/>
      <stop offset="0.8142" stop-color="#B71C1C"/>
    </radialGradient>
    <linearGradient id="SVGID_4_" gradientUnits="userSpaceOnUse" x1="44.8472" x2="59.7309" y1="96.121" y2="141.3302">
      <stop offset="0.0759" stop-color="#FFEB3B"/>
      <stop offset="1" stop-color="#FFD600" stop-opacity="0"/>
    </linearGradient>
    <linearGradient id="SVGID_5_" gradientUnits="userSpaceOnUse" x1="94.7209" x2="120.6082" y1="46.4721" y2="61.1415">
      <stop offset="0" stop-color="#FFD600"/>
      <stop offset="1" stop-color="#FFD600" stop-opacity="0"/>
    </linearGradient>
    <linearGradient id="SVGID_6_" gradientUnits="userSpaceOnUse" x1="87.6526" x2="94.9084" y1="65.354" y2="140.3306">
      <stop offset="0.1873" stop-color="#FFEB3B"/>
      <stop offset="0.9339" stop-color="#FFD600" stop-opacity="0"/>
    </linearGradient>
  </defs>
  <path d="M99.66,51.02 C97,35.69 90.52,30.95 84.8,26.77 C80.87,23.9 77.47,21.42 75.76,15.98 C73.93,10.18 78.56,4.14 78.61,4.08 C78.74,3.92 78.75,3.69 78.64,3.51 C78.53,3.33 78.34,3.24 78.12,3.28 C77.73,3.35 77.23,3.42 76.64,3.49 C70.54,4.3 54.35,6.43 50.09,28.14 C49.53,31 47.8,33.32 45.99,33.65 C44.83,33.86 43.74,33.22 42.86,31.79 C39.36,26.11 46.71,16.54 46.79,16.44 C46.92,16.28 46.93,16.05 46.82,15.87 C46.71,15.69 46.5,15.6 46.3,15.64 C46.09,15.68 25.6,19.95 17.28,40.9 C14.75,47.27 7.66,69.54 22.56,88.66 C37.5,107.83 46.57,109.14 46.77,109.25 C46.84,109.3 104.82,88.36 99.66,51.02 Z" fill="url(#SVGID_1_)"/>
  <path d="M70.75,36.89 C66.78,29.17 60.34,12.98 77.3,4.13 C64.55,6.42 55.18,15.49 55.94,30.8 C56.43,40.78 62.04,49.68 64.65,59.32 C68.16,72.35 65.51,80.49 63.98,86.64 C85.74,72.36 75.84,46.77 70.75,36.89 Z" fill="url(#SVGID_2_)" opacity="0.8"/>
  <path d="M87.31,41.09 C70.66,41.09 64.55,58.1 64.55,58.1 C64.55,58.1 60.17,41.09 41.75,41.09 C29.15,41.09 14.79,51.07 20.1,73.77 C25.41,96.46 64.59,124.74 64.59,124.74 C64.59,124.74 103.64,96.47 108.95,73.78 C114.26,51.07 100.92,41.09 87.31,41.09 Z" fill="url(#SVGID_3_)"/>
  <path d="M28.85,53.14 C31.7,49.58 36.79,46.65 41.1,50.03 C43.43,51.86 42.41,55.62 40.33,57.2 C37.29,59.51 34.64,60.9 32.8,64.52 C31.69,66.7 31.02,69.07 30.68,71.5 C30.55,72.46 29.29,72.69 28.82,71.85 C25.6,66.15 24.69,58.33 28.85,53.14 Z" fill="#FF7043"/>
  <path d="M74.53,60.61 C73.19,60.61 72.25,59.32 72.74,58.07 C73.65,55.78 74.81,53.55 76.22,51.58 C78.3,48.66 82.26,46.96 84.77,48.73 C87.34,50.54 87.01,54.16 85.2,55.9 C81.32,59.65 76.45,60.61 74.53,60.61 Z" fill="#FF7043"/>
  <path d="M62.56,123.22 C50.46,121.61 44.76,118.26 40.57,109.52 C38.43,105.05 38.42,97.41 38.34,92.68 C38.25,87.44 36.67,82.91 36.67,82.91 C39.83,83.47 45.56,89.02 48.2,99.28 C52.79,117.09 62.56,123.22 62.56,123.22 Z" fill="url(#SVGID_4_)"/>
  <path d="M104.82,82.91 C104.82,82.91 113.91,77.66 116.16,65.02 C117.63,56.77 115.88,48.53 107.97,40.44 C105.16,37.56 95.97,30.55 99.5,18.47 C99.5,18.47 90.86,25.8 93.79,39.02 C97.09,53.91 111.14,59.02 104.82,82.91 Z" fill="url(#SVGID_5_)"/>
  <path d="M97.88,66 C100.31,66.86 110.15,82.19 101,98.29 C92.86,112.61 76.95,114.83 76.95,114.83 C76.95,114.83 89.51,102.25 94.42,90.31 C98.86,79.54 97.88,66 97.88,66 Z" fill="url(#SVGID_6_)"/>
</svg>
